korla/apps/scalable/tor-browser-alpha.svg

<svg width="48" height="48" xmlns="http://www.w3.org/2000/svg">
 <circle cx="24" cy="25" r="20" opacity=".2"/>
 <circle cx="24" cy="24" r="20" fill="#06f1ba"/>
 <path d="m24 8c-9.371074 0-17 7.628926-17 17s7.628926 17 17 17 17-7.628926 17-17-7.628926-17-17-17zm0 3c7.749753 0 14 6.250247 14 14s-6.250247 14-14 14-14-6.250247-14-14 6.250247-14 14-14zm0 3c-6.057365 0-11 4.942635-11 11s4.942635 11 11 11 11-4.942635 11-11-4.942635-11-11-11zm0 3c4.436045 0 8 3.563955 8 8s-3.563955 8-8 8-8-3.563955-8-8 3.563955-8 8-8zm0 3a5 5 0 0 0-5 5 5 5 0 0 0 5 5 5 5 0 0 0 5-5 5 5 0 0 0-5-5z" opacity=".1"/>
 <circle cx="24" cy="24" r="15.5" fill="none" stroke="#3f3f3f" stroke-linecap="round" stroke-linejoin="round" stroke-width="3"/>
 <circle cx="24" cy="24" r="9.5" fill="none" stroke="#3f3f3f" stroke-linecap="round" stroke-linejoin="round" stroke-width="3"/>
 <circle cx="24" cy="24" r="5" fill="#3f3f3f"/>
 <path d="m24 43c-11.045695 0-19-7.954305-19-19s7.954305-19 19-19z" fill="#06f1ba"/>
 <path d="m24 4a20 20 0 0 0 -20 20 20 20 0 0 0 .0214844.582031 20 20 0 0 1 19.9785156-19.582031 20 20 0 0 1 19.978516 19.417969 20 20 0 0 0 .021484-.417969 20 20 0 0 0 -20-20z" fill="#fff" opacity=".2"/>
</svg>

<svg xmlns="http://www.w3.org/2000/svg" width="48" height="48" version="1">
 <circle style="opacity:0.2" cx="24" cy="25" r="20"/>
 <circle style="fill:#06f1ba" cx="24" cy="24" r="20"/>
 <path style="opacity:0.1" d="M 24,8 C 14.628926,8 7,15.628926 7,25 7,34.371074 14.628926,42 24,42 33.371074,42 41,34.371074 41,25 41,15.628926 33.371074,8 24,8 Z m 0,3 c 7.749753,0 14,6.250247 14,14 0,7.749753 -6.250247,14 -14,14 -7.749753,0 -14,-6.250247 -14,-14 0,-7.749753 6.250247,-14 14,-14 z m 0,3 c -6.057365,0 -11,4.942635 -11,11 0,6.057365 4.942635,11 11,11 6.057365,0 11,-4.942635 11,-11 0,-6.057365 -4.942635,-11 -11,-11 z m 0,3 c 4.436045,0 8,3.563955 8,8 0,4.436045 -3.563955,8 -8,8 -4.436045,0 -8,-3.563955 -8,-8 0,-4.436045 3.563955,-8 8,-8 z m 0,3 a 5,5 0 0 0 -5,5 5,5 0 0 0 5,5 5,5 0 0 0 5,-5 5,5 0 0 0 -5,-5 z"/>
 <circle style="fill:none;stroke:#3f3f3f;stroke-width:3;stroke-linecap:round;stroke-linejoin:round" cx="24" cy="24" r="15.5"/>
 <circle style="fill:none;stroke:#3f3f3f;stroke-width:3;stroke-linecap:round;stroke-linejoin:round" cx="24" cy="24" r="9.5"/>
 <circle style="fill:#3f3f3f" cx="24" cy="24" r="5"/>
 <path style="fill:#06f1ba" d="M 24,43 C 12.954305,43 5,35.045695 5,24 5,12.954305 12.954305,5 24,5 Z"/>
 <path style="opacity:0.2;fill:#ffffff" d="M 24 4 A 20 20 0 0 0 4 24 A 20 20 0 0 0 4.0214844 24.582031 A 20 20 0 0 1 24 5 A 20 20 0 0 1 43.978516 24.417969 A 20 20 0 0 0 44 24 A 20 20 0 0 0 24 4 z"/>
</svg>
